X: 42647
T: Whiskey In The Jar
R: barndance
M: 4/4
K: Dmajor
A2|:A3 A A2 B2|A2 F2 F2 A2|B3 B B2 c2|B2 F4 B2|
B3 B B2 c|d2 d2 c2 B2|A2 d2 d2 c2|1 B2 A4 A2:|2 B2 A2 F2 D2||
E2 EE E2 EE|(E8|E2) F2 F2 E2|F3 G A4|
B2 B3 A B2|c2 d2 B2 A2|F2 E2 F2 D2||

